icons/OpenLotus/actions/22/labplot-matrix.svg

<?xml version="1.0" encoding="UTF-8" standalone="no"?>
<!-- Created with Inkscape (http://www.inkscape.org/) -->

<svg
   xmlns:dc="http://purl.org/dc/elements/1.1/"
   xmlns:cc="http://creativecommons.org/ns#"
   xmlns:rdf="http://www.w3.org/1999/02/22-rdf-syntax-ns#"
   xmlns:svg="http://www.w3.org/2000/svg"
   xmlns="http://www.w3.org/2000/svg"
   xmlns:sodipodi="http://sodipodi.sourceforge.net/DTD/sodipodi-0.dtd"
   xmlns:inkscape="http://www.inkscape.org/namespaces/inkscape"
   width="22.000002"
   height="22"
   viewBox="0 0 22.000002 22"
   version="1.1"
   id="main"
   inkscape:version="0.92+devel (9cbd9e9661, 2017-09-28, custom)"
   sodipodi:docname="labplot-matrix.svg">
  <defs
     id="ol-defs">
    <style
       id="current-color-scheme"
       type="text/css">
      .ColorScheme-Text {
        color:#f2f2f2;
      }
      .ColorScheme-Highlight {
        color:#3daee9;
      }
      </style>
  </defs>
  <sodipodi:namedview
     id="base"
     pagecolor="#002466"
     bordercolor="#ffffff"
     borderopacity="0.30"
     inkscape:pageopacity="1"
     inkscape:pageshadow="0"
     inkscape:zoom="13.140625"
     inkscape:document-units="px"
     inkscape:current-layer="main"
     inkscape:document-rotation="0"
     showgrid="false"
     inkscape:showpageshadow="false"
     borderlayer="true"
     inkscape:window-width="1920"
     inkscape:window-height="1027"
     inkscape:window-x="0"
     inkscape:window-y="24"
     inkscape:window-maximized="1"
     units="px"
     inkscape:cx="6.5947884"
     inkscape:cy="8.0269054" />
  <metadata
     id="metadata5">
    <rdf:RDF>
      <cc:Work
         rdf:about="">
        <dc:format>image/svg+xml</dc:format>
        <dc:type
           rdf:resource="http://purl.org/dc/dcmitype/StillImage" />
        <dc:title></dc:title>
      </cc:Work>
    </rdf:RDF>
  </metadata>
  <g
     id="g856"
     inkscape:label="#labplot-matrix"
     style="stroke:none">
    <path
       style="fill:none;stroke:none;stroke-width:1"
       d="M 0,0 H 22.000001 V 22 H 0 Z"
       id="boundary"
       inkscape:label="#boundary"
       inkscape:connector-curvature="0" />
    <path
       inkscape:label="#"
       inkscape:connector-curvature="0"
       id="path850"
       d="m 3.000001,3 v 16 h 1 2 v -1 h -2 V 4 h 2 V 3 h -2 z m 13,0 v 1 h 2 v 14 h -2 v 1 h 2 1 V 3 h -1 z"
       style="opacity:0.6;fill:#d0d0d0;fill-opacity:1;stroke:none" />
    <path
       inkscape:label="#"
       inkscape:connector-curvature="0"
       id="path845"
       d="m 5.000001,5 v 5 h 5 V 5 Z m 7,0 v 5 h 5 V 5 Z m -7,7 v 5 h 5 v -5 z m 7,0 v 5 h 5 v -5 z"
       style="fill:#005cc7;fill-opacity:1;stroke:none" />
  </g>
</svg>

<svg xmlns="http://www.w3.org/2000/svg" viewBox="0 0 22 22">
  <defs id="defs3051">
    <style type="text/css" id="current-color-scheme">
      .ColorScheme-Text {
        color:#f2f2f2;
      }
      .ColorScheme-Highlight {
        color:#3daee9;
      }
      </style>
  </defs>
 <path 
     style="fill:currentColor;fill-opacity:1;stroke:none" 
     d="M 3 3 L 3 19 L 4 19 L 6 19 L 6 18 L 4 18 L 4 4 L 6 4 L 6 3 L 4 3 L 3 3 z M 16 3 L 16 4 L 18 4 L 18 18 L 16 18 L 16 19 L 18 19 L 19 19 L 19 3 L 18 3 L 16 3 z "
     class="ColorScheme-Text"
     />
 <path 
     style="fill:currentColor;fill-opacity:1;stroke:none" 
     d="M 5 5 L 5 10 L 10 10 L 10 5 L 5 5 z M 12 5 L 12 10 L 17 10 L 17 5 L 12 5 z M 6 6 L 9 6 L 9 9 L 6 9 L 6 6 z M 13 6 L 16 6 L 16 9 L 13 9 L 13 6 z M 5 12 L 5 17 L 10 17 L 10 12 L 5 12 z M 12 12 L 12 17 L 17 17 L 17 12 L 12 12 z M 6 13 L 9 13 L 9 16 L 6 16 L 6 13 z M 13 13 L 16 13 L 16 16 L 13 16 L 13 13 z "
     class="ColorScheme-Highlight"
     />
</svg>
